X: 715
T: Kentucky Waltz
C:Bill Monroe
B: jims roots
M:3/4
Q: 1/4=100
K:G
V:1 
d ef|"G"g4fe|d3B AG|B2B4-|B3G Bd|g4fe|d3B AG|"D"F6-|F4de|
f4ed|c3B AG|F2F3G|F4E2|D2F2A2|d2f3e|"G"d6-|d3d ef|
g4fe|d3B AG|B2B4-|B3d ga|b4b2|a2b2a2|"C"g6-|g4ef|
g4g2|a3g a^a|"G"b3a ge|d4^cd|"A"e3^d e=f|"D"^f3e fb|"G"g6-|g3|]
% abcbook-tune_id 6298c25dd5b37f3bc8edd278


% abcbook-boost 0
% abcbook-tablature 
% abcbook-transpose 
% abcbook-lastupdated 1654178399493
% abcbook-soundfonts 
% abcbook-repeats 1


